X:19046
T:Sir Sidney Smith
R:March
C:Trad.
O:England
Z:Paul Hardy's Session Tunebook 2022 (see www.paulhardy.net). Creative Commons cc by-nc-sa licenced.
M:4/4
L:1/4
Q:1/4=120
K:G
B/c/|"G"dd dd|"Am"e"b"d "a"c"g"B|"C"d/c/B/c/ "D7"Ad/c/|"G"B/c/"D"A/B/ "G"Gd/c/|
"G"B/d/B/d/ "D"A/d/A/d/|"Em"G/d/G/d/ "Bm"Fd/c/|"Em"B/c/d/e/ "A7"d^c|"D"d3:|
A/G/|"D"F/D/"c"F/A/ "b"d/A/"a"B/c/|"G"B3d/c/|"G7"B/G/"f"B/d/ "e"g/d/"d"e/=f/|"C"e3g/f/|
"C"e/g/e/g/ "G"d/g/d/g/|"D"c/g/c/g/ "G"B/g/B/g/|"C"e/g/e/g/ "G"d/g/d/g/|"D"c/g/c/g/ "G"B/g/B/g/|
"Am"e"b"d "a"c"g"B|"Em"e"b"d "a"c"g"B|"C"e"b"d "a"c"g"B|"G"B"A7"A "D7"AB/c/|"G"dd dd|"Am"e"b"d "a"c"g"B|
"C"d/c/B/c/ "D7"Ad/c/|"G"B/c/"D"A/B/ "G"Gd/c/|"G"B/d/B/d/ "D"A/d/A/d/|"Em"G/d/G/d/ "D"F/d/F/d/|"C"E/d/E/d/ "D"F/d/F/d/|
"Em"G/d/G/d/ "D"A/d/A/d/|"C"E/d/E/d/ "D"F/d/F/d/|"Em"G/d/G/d/ "D"A/d/A/d/|"C"c/e/d/c/ "D7"B/G/A/F/|"G"G3|]

